X:1
T:Title
%%score { ( 1 3 ) | 2 }
L:1/8
Q:1/4=100
M:4/4
K:G
V:1 treble nm="Grand Piano"
V:3 treble 
V:2 treble 
V:1
 [GB]3 [Ac] [Bd]BGA | B6 BB | [FA]2 [GB]2 [Ac]2 [Fe]2 | [Gd]6 z2 | [GB]3 [Ac] [Bd][GB][Gc][Gd] | %5
w: W.~J.~Kirkpatrick * * * * *|||||
 [Ge]6 [DGd][EGc] | [DGB]2 [Gd]2 [Fc]2 [DA]2 | [B,DG]6 z2 | [GB]3 [Gd] [Gd] .[Fc]3 | %9
w: ||||
 [FA]3 [Ac] [Ac] .B3 | GGGG F2 G2 | A6 z2 | [DGB]3 [Gd] [Gd] .[Fc]3 | [Fc]3 [Fe] [Ge] .[Gd]3 | %14
w: |||||
 [B,DG][CDF][DG][EGA] [DGB]2 [CFA]2 | [G,B,DG]6 z2 |] %16
w: ||
V:2
 [G,D]3 [G,D] [G,D][G,DG][G,B,D][G,CD] | [G,DG]6 [G,DG][G,DG] | [D,D]2 [D,D]2 [D,D]2 [D,C]2 | %3
 [G,B,]6 z2 | [G,D]3 [G,D] [G,D][G,D][E,C][D,B,] | [C,C]6 B,,C, | D,2 [D,B,]2 [D,A,]2 [D,C]2 | %7
 [G,,G,]6 z2 | [G,D]3 [G,B,] [D,B,] .[D,A,]3 | [D,D]3 [D,D][K:treble] [G,D] .[G,DG]3 | %10
 [G,B,D][G,B,D][CE][K:bass][B,D] [A,CD]2 [G,B,D]2 | D,2 A,,A,, D,2 z2 | %12
 G,3 [G,B,] [D,B,] .[D,A,]3 | [D,A,]3 [D,C] [G,C] .[G,B,]3 | G,,A,,B,,C, D,2 D,2 | G,,6 z2 |] %16
V:3
 x8 | x8 | x8 | x8 | x8 | x8 | x8 | x8 | x8 | x8 | x8 | [DF]2 [^CE][EG] [DF]2 z2 | x8 | x8 | x8 | %15
 x8 |] %16

